dist/static/images/icons/svg/lectorium-hover.svg

<svg width="257" height="165" viewBox="0 0 257 165" fill="none" xmlns="http://www.w3.org/2000/svg">
<rect x="132.867" y="100.922" width="123.185" height="63.7769" rx="5" fill="#2871FF"/>
<circle cx="164.318" cy="133.247" r="25.336" fill="white"/>
<path d="M140.73 7.44043V17.9243" stroke="#2871FF" stroke-linecap="round"/>
<path d="M156.457 7.44043V17.9243" stroke="#2871FF" stroke-linecap="round"/>
<path d="M172.182 7.44043V17.9243" stroke="#2871FF" stroke-linecap="round"/>
<path d="M144.225 7.44043V17.9243" stroke="#2871FF" stroke-linecap="round"/>
<path d="M159.951 7.44043V17.9243" stroke="#2871FF" stroke-linecap="round"/>
<path d="M175.676 7.44043V17.9243" stroke="#2871FF" stroke-linecap="round"/>
<rect x="1.44531" y="0.951172" width="122.185" height="163.247" rx="4.5" stroke="#2871FF"/>
<path d="M18.418 24.04H107.968" stroke="#2871FF"/>
<path d="M18.418 31.0293H107.968" stroke="#2871FF"/>
<path d="M18.418 38.0186H107.968" stroke="#2871FF"/>
<path d="M18.418 65.9756H107.968" stroke="#2871FF"/>
<path d="M18.418 107.911H107.968" stroke="#2871FF"/>
<path d="M18.418 72.9648H107.968" stroke="#2871FF"/>
<path d="M18.418 114.9H107.968" stroke="#2871FF"/>
<path d="M18.418 93.9326H107.968" stroke="#2871FF"/>
<path d="M18.418 135.868H107.968" stroke="#2871FF"/>
<path d="M18.418 58.9863H107.968" stroke="#2871FF"/>
<path d="M18.418 100.922H107.968" stroke="#2871FF"/>
<path d="M18.418 79.9541H107.968" stroke="#2871FF"/>
<path d="M18.418 121.89H107.968" stroke="#2871FF"/>
<path d="M18.418 51.9971H107.968" stroke="#2871FF"/>
<path d="M18.418 45.0078H107.968" stroke="#2871FF"/>
<path d="M18.418 86.9434H107.968" stroke="#2871FF"/>
<path d="M18.418 128.879H107.968" stroke="#2871FF"/>
<rect x="132.867" y="40.6396" width="98.7231" height="49.7984" rx="5" fill="#2871FF"/>
<rect x="235.586" y="41.1396" width="19.9677" height="48.7984" rx="4.5" stroke="#2871FF"/>
<rect x="133.367" y="0.951172" width="48.7984" height="22.5887" rx="4.5" stroke="#2871FF"/>
<circle cx="199.265" cy="12.6822" r="7.8629" fill="#2871FF"/>
<circle cx="223.728" cy="12.6822" r="7.8629" fill="#2871FF"/>
<circle cx="248.189" cy="12.6822" r="7.8629" fill="#2871FF"/>
<circle cx="245.568" cy="51.1228" r="4.74194" stroke="#2871FF"/>
<circle cx="245.568" cy="65.9753" r="4.74194" stroke="#2871FF"/>
<circle cx="245.568" cy="80.8279" r="4.74194" stroke="#2871FF"/>
<rect x="149.467" y="9.1875" width="0.873656" height="0.873656" rx="0.436828" fill="#2871FF"/>
<rect x="165.193" y="9.1875" width="0.873656" height="0.873656" rx="0.436828" fill="#2871FF"/>
<rect x="149.467" y="14.4297" width="0.873656" height="0.873656" rx="0.436828" fill="#2871FF"/>
<rect x="165.193" y="14.4297" width="0.873656" height="0.873656" rx="0.436828" fill="#2871FF"/>
<circle cx="164.319" cy="133.247" r="0.873656" fill="#2871FF"/>
<path d="M164.672 109.741C164.477 109.546 164.16 109.546 163.965 109.741L160.783 112.923C160.588 113.118 160.588 113.435 160.783 113.63C160.978 113.826 161.295 113.826 161.49 113.63L164.318 110.802L167.147 113.63C167.342 113.826 167.659 113.826 167.854 113.63C168.049 113.435 168.049 113.118 167.854 112.923L164.672 109.741ZM164.818 133.247V110.095H163.818V133.247H164.818Z" fill="#2871FF"/>
<rect x="141.23" y="47.2549" width="7.73656" height="12.9785" rx="2" fill="#2871FF" stroke="white"/>
<rect x="156.082" y="47.2549" width="7.73656" height="12.9785" rx="2" fill="#2871FF" stroke="white"/>
<rect x="170.934" y="47.2549" width="7.73656" height="12.9785" rx="2" fill="#2871FF" stroke="white"/>
<rect x="185.787" y="47.2549" width="7.73656" height="12.9785" rx="2" fill="#2871FF" stroke="white"/>
<rect x="200.639" y="47.2549" width="7.73656" height="12.9785" rx="2" fill="#2871FF" stroke="white"/>
<rect x="215.49" y="47.2549" width="7.73656" height="12.9785" rx="2" fill="#2871FF" stroke="white"/>
<rect x="143.352" y="49.376" width="3.49462" height="8.73656" fill="white"/>
<rect x="158.203" y="49.376" width="3.49462" height="8.73656" fill="white"/>
<rect x="173.055" y="49.376" width="3.49462" height="8.73656" fill="white"/>
<rect x="187.908" y="49.376" width="3.49462" height="8.73656" fill="white"/>
<rect x="202.76" y="49.376" width="3.49462" height="8.73656" fill="white"/>
<rect x="217.611" y="49.376" width="3.49462" height="8.73656" fill="white"/>
<circle cx="224.602" cy="133.247" r="25.336" fill="white"/>
<path d="M241.999 117.466C242.009 117.19 241.792 116.959 241.516 116.95L237.019 116.798C236.743 116.789 236.512 117.005 236.502 117.281C236.493 117.557 236.709 117.788 236.985 117.798L240.983 117.932L240.848 121.93C240.839 122.206 241.055 122.437 241.331 122.446C241.607 122.456 241.839 122.239 241.848 121.963L241.999 117.466ZM224.943 133.612L241.841 117.814L241.158 117.084L224.26 132.882L224.943 133.612Z" fill="#2871FF"/>
<circle cx="224.602" cy="133.247" r="0.873656" fill="#2871FF"/>
</svg>

<svg width="257" height="165" viewBox="0 0 257 165" fill="none" xmlns="http://www.w3.org/2000/svg"><rect x="132.867" y="100.922" width="123.185" height="63.777" rx="5" fill="#2871FF"/><circle cx="164.318" cy="133.247" r="25.336" fill="#fff"/><path d="M140.73 7.44v10.484M156.457 7.44v10.484M172.182 7.44v10.484M144.225 7.44v10.484M159.951 7.44v10.484M175.676 7.44v10.484" stroke="#2871FF" stroke-linecap="round"/><rect x="1.445" y=".951" width="122.185" height="163.247" rx="4.5" stroke="#2871FF"/><path d="M18.418 24.04h89.55m-89.55 6.99h89.55m-89.55 6.989h89.55m-89.55 27.957h89.55m-89.55 41.935h89.55m-89.55-34.946h89.55M18.418 114.9h89.55m-89.55-20.967h89.55m-89.55 41.935h89.55m-89.55-76.882h89.55m-89.55 41.936h89.55m-89.55-20.968h89.55m-89.55 41.936h89.55m-89.55-69.893h89.55m-89.55-6.989h89.55m-89.55 41.935h89.55m-89.55 41.936h89.55" stroke="#2871FF"/><rect x="132.867" y="40.64" width="98.723" height="49.798" rx="5" fill="#2871FF"/><rect x="235.586" y="41.14" width="19.968" height="48.798" rx="4.5" stroke="#2871FF"/><rect x="133.367" y=".951" width="48.798" height="22.589" rx="4.5" stroke="#2871FF"/><circle cx="199.265" cy="12.682" r="7.863" fill="#2871FF"/><circle cx="223.728" cy="12.682" r="7.863" fill="#2871FF"/><circle cx="248.189" cy="12.682" r="7.863" fill="#2871FF"/><circle cx="245.568" cy="51.123" r="4.742" stroke="#2871FF"/><circle cx="245.568" cy="65.975" r="4.742" stroke="#2871FF"/><circle cx="245.568" cy="80.828" r="4.742" stroke="#2871FF"/><rect x="149.467" y="9.188" width=".874" height=".874" rx=".437" fill="#2871FF"/><rect x="165.193" y="9.188" width=".874" height=".874" rx=".437" fill="#2871FF"/><rect x="149.467" y="14.43" width=".874" height=".874" rx=".437" fill="#2871FF"/><rect x="165.193" y="14.43" width=".874" height=".874" rx=".437" fill="#2871FF"/><circle cx="164.319" cy="133.247" r=".874" fill="#2871FF"/><path d="M164.672 109.741a.5.5 0 00-.707 0l-3.182 3.182a.5.5 0 00.707.707l2.828-2.828 2.829 2.828a.5.5 0 00.707-.707l-3.182-3.182zm.146 23.506v-23.152h-1v23.152h1z" fill="#2871FF"/><rect x="141.23" y="47.255" width="7.737" height="12.979" rx="2" fill="#2871FF" stroke="#fff"/><rect x="156.082" y="47.255" width="7.737" height="12.979" rx="2" fill="#2871FF" stroke="#fff"/><rect x="170.934" y="47.255" width="7.737" height="12.979" rx="2" fill="#2871FF" stroke="#fff"/><rect x="185.787" y="47.255" width="7.737" height="12.979" rx="2" fill="#2871FF" stroke="#fff"/><rect x="200.639" y="47.255" width="7.737" height="12.979" rx="2" fill="#2871FF" stroke="#fff"/><rect x="215.49" y="47.255" width="7.737" height="12.979" rx="2" fill="#2871FF" stroke="#fff"/><path fill="#fff" d="M143.352 49.376h3.495v8.737h-3.495zm14.851 0h3.495v8.737h-3.495zm14.852 0h3.495v8.737h-3.495zm14.853 0h3.495v8.737h-3.495zm14.852 0h3.495v8.737h-3.495zm14.851 0h3.495v8.737h-3.495z"/><circle cx="224.602" cy="133.247" r="25.336" fill="#fff"/><path d="M241.999 117.466a.499.499 0 00-.483-.516l-4.497-.152a.501.501 0 00-.034 1l3.998.134-.135 3.998a.5.5 0 101 .033l.151-4.497zm-17.056 16.146l16.898-15.798-.683-.73-16.898 15.798.683.73z" fill="#2871FF"/><circle cx="224.602" cy="133.247" r=".874" fill="#2871FF"/></svg>
